icons/svg/file-sync.svg

<svg width="24" height="24" viewBox="0 0 24 24" fill="none" xmlns="http://www.w3.org/2000/svg">
<path d="M4.29167 10.25V6.25C4.29167 4.317 5.85867 2.75 7.79167 2.75H10.24C10.7442 2.75 11.2371 2.85878 11.6875 3.06333M13.75 21.25H16.2083C18.1413 21.25 19.7083 19.683 19.7083 17.75V12.2195C19.7083 11.7148 19.5993 11.2213 19.3943 10.7706M11.6875 3.06333C12.0664 3.23545 12.4152 3.47538 12.7152 3.77538L18.6835 9.74492C18.9828 10.0443 19.2223 10.3924 19.3943 10.7706M11.6875 3.06333V4.10999V8.77056C11.6875 9.87513 12.5829 10.7706 13.6875 10.7706H18.35H19.3943" stroke="currentColor" stroke-width="1.5" stroke-linecap="round" stroke-linejoin="round"/>
<path fill-rule="evenodd" clip-rule="evenodd" d="M6.5 23C9.53757 23 12 20.5376 12 17.5C12 14.4624 9.53757 12 6.5 12C3.46243 12 1 14.4624 1 17.5C1 20.5376 3.46243 23 6.5 23ZM8.04801 14.3609C7.42716 14.0548 6.72947 13.9396 6.04316 14.0299C5.35685 14.1203 4.71274 14.4121 4.19229 14.8686C3.67184 15.325 3.29842 15.9255 3.11926 16.5941C3.04779 16.8609 3.20608 17.135 3.47281 17.2065C3.73955 17.278 4.01371 17.1197 4.08519 16.853C4.21316 16.3753 4.47989 15.9464 4.85163 15.6204C5.22338 15.2944 5.68346 15.0859 6.17368 15.0214C6.66391 14.9569 7.16226 15.0391 7.60572 15.2578C7.86593 15.3861 8.10038 15.558 8.29965 15.7647H7.73529C7.45915 15.7647 7.23529 15.9886 7.23529 16.2647C7.23529 16.5409 7.45915 16.7647 7.73529 16.7647H9.5C9.77614 16.7647 10 16.5409 10 16.2647V14.5C10 14.2239 9.77614 14 9.5 14C9.22386 14 9 14.2239 9 14.5V15.0505C8.72526 14.7701 8.40384 14.5364 8.04801 14.3609ZM9.88074 18.4059C9.95221 18.1391 9.79392 17.865 9.52719 17.7935C9.26045 17.722 8.98629 17.8803 8.91481 18.147C8.78684 18.6247 8.52011 19.0536 8.14836 19.3796C7.77662 19.7056 7.31654 19.9141 6.82632 19.9786C6.33609 20.0432 5.83774 19.9609 5.39428 19.7422C5.13407 19.6139 4.89962 19.442 4.70035 19.2353H5.26471C5.54085 19.2353 5.76471 19.0114 5.76471 18.7353C5.76471 18.4592 5.54085 18.2353 5.26471 18.2353H3.5C3.22386 18.2353 3 18.4592 3 18.7353V20.5C3 20.7761 3.22386 21 3.5 21C3.77614 21 4 20.7761 4 20.5V19.9495C4.27474 20.2299 4.59616 20.4636 4.95199 20.6391C5.57284 20.9452 6.27053 21.0604 6.95684 20.9701C7.64315 20.8797 8.28726 20.5879 8.80771 20.1314C9.32816 19.675 9.70158 19.0745 9.88074 18.4059Z" fill="currentColor"/>
</svg>

<svg xmlns="http://www.w3.org/2000/svg" width="24" height="24" fill="none" viewBox="0 0 24 24"><path stroke="currentColor" stroke-linecap="round" stroke-linejoin="round" stroke-width="1.5" d="M4.292 10.25v-4a3.5 3.5 0 0 1 3.5-3.5h2.448a3.5 3.5 0 0 1 1.447.313M13.75 21.25h2.458a3.5 3.5 0 0 0 3.5-3.5v-5.53c0-.505-.109-.999-.314-1.45m-7.706-7.707a3.5 3.5 0 0 1 1.027.712l5.968 5.97c.3.3.54.647.711 1.026m-7.706-7.708V8.77a2 2 0 0 0 2 2h5.706"/><path fill="currentColor" fill-rule="evenodd" d="M6.5 23a5.5 5.5 0 1 0 0-11 5.5 5.5 0 0 0 0 11m1.548-8.64a3.5 3.5 0 0 0-4.929 2.234.5.5 0 0 0 .966.259A2.5 2.5 0 0 1 8.3 15.765h-.565a.5.5 0 0 0 0 1H9.5a.5.5 0 0 0 .5-.5V14.5a.5.5 0 0 0-1 0v.55a3.5 3.5 0 0 0-.952-.69m1.833 4.046a.5.5 0 0 0-.966-.259A2.5 2.5 0 0 1 4.7 19.235h.565a.5.5 0 0 0 0-1H3.5a.5.5 0 0 0-.5.5V20.5a.5.5 0 0 0 1 0v-.55a3.5 3.5 0 0 0 5.88-1.544" clip-rule="evenodd"/></svg>
